picto/tracks-38-de-small-framed.svg

<svg class="color-immutable" width="30" height="30" viewBox="0 0 30 30" fill="none" xmlns="http://www.w3.org/2000/svg"><path d="M30 0H0V30H30V0Z" fill="#2D327D"/><path d="M25.5 3C26.325 3 27 3.675 27 4.5V25.5C27 26.325 26.325 27 25.5 27H4.5C3.675 27 3 26.325 3 25.5V4.5C3 3.675 3.675 3 4.5 3H25.5ZM25.5 2.625H4.5C3.46613 2.625 2.625 3.46613 2.625 4.5V25.5C2.625 26.5339 3.46613 27.375 4.5 27.375H25.5C26.5339 27.375 27.375 26.5339 27.375 25.5V4.5C27.375 3.46613 26.5339 2.625 25.5 2.625Z" fill="white"/><path d="M6.41363 16.3191C6.4392 15.3962 6.66743 14.6222 7.09808 13.9966C7.79528 12.9918 8.84378 12.4892 10.2434 12.4892C11.3201 12.4892 12.1891 12.7636 12.8505 13.3121C13.5631 13.907 13.9195 14.676 13.9195 15.6193C13.9195 16.1834 13.7798 16.669 13.5004 17.0767C13.2209 17.4842 12.8429 17.7599 12.366 17.9033C12.9709 18.0418 13.449 18.3494 13.8003 18.8262C14.1515 19.303 14.3271 19.8798 14.3271 20.5565C14.3271 21.6692 13.9169 22.5791 13.0967 23.2866C12.3378 23.9429 11.3791 24.271 10.2204 24.271C8.96423 24.271 7.9683 23.9096 7.2327 23.1866C6.49695 22.4637 6.12915 21.4871 6.12915 20.2566C6.12915 20.231 6.12915 20.1824 6.12915 20.1105H8.29013C8.29013 20.8027 8.45415 21.3371 8.78228 21.7139C9.11033 22.0908 9.57443 22.2792 10.1743 22.2792C10.7741 22.2792 11.2355 22.1024 11.5586 21.7486C11.8559 21.4154 12.0046 21.018 12.0046 20.5565C12.0046 20.0028 11.8148 19.5644 11.4355 19.2415C11.1227 18.9749 10.6407 18.8416 9.9897 18.8416C9.80513 18.8416 9.6231 18.8519 9.4437 18.8723V17.2189C9.57698 17.2292 9.70515 17.2343 9.82823 17.2343C11.1203 17.2343 11.7662 16.7549 11.7662 15.7961C11.7662 15.3758 11.6252 15.0361 11.3432 14.7772C11.0612 14.5184 10.6895 14.3888 10.2281 14.3888C9.69998 14.3888 9.29243 14.5529 9.00533 14.881C8.71815 15.2092 8.56433 15.6885 8.54393 16.3191H6.41363Z" fill="white"/><path d="M17.6756 17.9649C17.1526 17.7855 16.7514 17.4908 16.472 17.0805C16.1925 16.6704 16.0529 16.173 16.0529 15.5885C16.0529 14.6145 16.4528 13.8377 17.2526 13.2584C17.9601 12.7457 18.8009 12.4893 19.7751 12.4893C20.8825 12.4893 21.7873 12.7944 22.4898 13.4045C23.1562 13.9787 23.4895 14.6888 23.4895 15.5347C23.4895 16.1243 23.3484 16.6294 23.0665 17.0497C22.7844 17.4701 22.3845 17.7752 21.8668 17.9648C22.2717 18.0828 22.6025 18.234 22.8589 18.4186C23.5715 18.9365 23.9279 19.6927 23.9279 20.6873C23.9279 21.8306 23.4895 22.7406 22.6128 23.4173C21.8745 23.9864 20.926 24.271 19.7674 24.271C18.5112 24.271 17.5115 23.9583 16.7682 23.3327C15.9939 22.6817 15.6069 21.8281 15.6069 20.7718C15.6069 19.7824 15.9504 19.0159 16.6374 18.4724C16.95 18.2315 17.2961 18.0623 17.6756 17.9649ZM19.7289 18.8108C19.1751 18.8108 18.7226 18.9813 18.3715 19.3223C18.0202 19.6633 17.8447 20.1003 17.8447 20.6334C17.8447 21.182 18.0228 21.6281 18.3792 21.9716C18.7355 22.3151 19.1982 22.4868 19.7673 22.4868C20.4133 22.4868 20.8978 22.2972 21.2208 21.9177C21.5335 21.5537 21.69 21.1333 21.69 20.6565C21.69 20.1131 21.5104 19.6671 21.1516 19.3184C20.808 18.98 20.3338 18.8108 19.7289 18.8108ZM19.7443 14.235C19.2522 14.235 18.8547 14.3723 18.5523 14.6465C18.2497 14.9208 18.0985 15.2809 18.0985 15.727C18.0985 16.1936 18.251 16.5665 18.5562 16.846C18.861 17.1255 19.27 17.2651 19.7827 17.2651C20.2953 17.2651 20.7003 17.1266 20.9978 16.8498C21.2951 16.573 21.4438 16.1961 21.4438 15.7193C21.4438 15.2528 21.2939 14.8888 20.9939 14.6273C20.6941 14.3657 20.2774 14.235 19.7443 14.235Z" fill="white"/><path d="M8.0955 7.03665V8.24865H7.7817L7.7325 7.99178C7.56637 8.19893 7.34235 8.3025 7.06035 8.3025C6.71685 8.3025 6.44565 8.17538 6.24667 7.92105C6.0816 7.7088 5.99902 7.44683 5.99902 7.13513C5.99902 6.78135 6.10672 6.4917 6.32205 6.2661C6.52402 6.0528 6.78502 5.94615 7.1049 5.94615C7.40025 5.94615 7.6407 6.04148 7.82625 6.2322C7.9647 6.37575 8.04412 6.54495 8.06467 6.7398H7.5894C7.5648 6.61883 7.50967 6.52448 7.42402 6.45683C7.33837 6.38918 7.23 6.35528 7.09875 6.35528C6.89985 6.35528 6.74602 6.43215 6.63735 6.58598C6.54202 6.7203 6.49432 6.9018 6.49432 7.13048C6.49432 7.35398 6.53895 7.53143 6.62812 7.66268C6.73785 7.82363 6.89985 7.90418 7.11412 7.90418C7.26892 7.90418 7.39582 7.85753 7.49482 7.76423C7.59382 7.67093 7.6458 7.54838 7.65097 7.39665H7.1511V7.03673H8.0955V7.03665Z" fill="white"/><path d="M8.90306 6V8.24865H8.45703V6H8.90306Z" fill="white"/><path d="M10.7749 7.72575C10.7513 7.8201 10.7087 7.90875 10.6472 7.99185C10.4995 8.19383 10.2873 8.29485 10.0105 8.29485C9.76026 8.29485 9.55978 8.21588 9.40903 8.058C9.33523 7.98113 9.27883 7.88828 9.23983 7.7796C9.19776 7.66373 9.17676 7.54275 9.17676 7.4166C9.17676 7.17255 9.24703 6.9675 9.38751 6.80138C9.54441 6.61575 9.74743 6.52298 9.99658 6.52298C10.1976 6.52298 10.3688 6.585 10.5103 6.70905C10.6119 6.79823 10.6857 6.90825 10.7318 7.03898C10.7779 7.1697 10.801 7.33403 10.801 7.53196H9.63058C9.63471 7.614 9.64753 7.68218 9.66906 7.73655C9.72958 7.88318 9.84441 7.95653 10.0136 7.95653C10.0966 7.95653 10.1644 7.9383 10.2166 7.90193C10.2689 7.86555 10.312 7.80683 10.3459 7.72583H10.7749V7.72575ZM10.3457 7.23203C10.3375 7.15103 10.3191 7.08383 10.2904 7.0305C10.2616 6.97823 10.2209 6.93668 10.1681 6.90593C10.1153 6.87518 10.0576 6.8598 9.99508 6.8598C9.89563 6.8598 9.81358 6.8931 9.74901 6.95978C9.68443 7.02645 9.64596 7.1172 9.63366 7.23203H10.3457Z" fill="white"/><path d="M11.5239 6V6.40147H11.0779V6H11.5239ZM11.5239 6.57217V8.24873H11.0779V6.57217H11.5239Z" fill="white"/><path d="M13.2481 7.05975H12.8298C12.8216 7.0023 12.8057 6.95873 12.7821 6.92903C12.736 6.86955 12.6503 6.83985 12.5252 6.83985C12.4462 6.83985 12.3853 6.85418 12.3422 6.88291C12.2992 6.91163 12.2776 6.95213 12.2776 7.0044C12.2776 7.05975 12.3015 7.10025 12.3492 7.1259C12.3969 7.15155 12.5058 7.18178 12.676 7.21665C12.8924 7.26075 13.0483 7.31558 13.1436 7.3812C13.2564 7.45808 13.3128 7.57501 13.3128 7.7319C13.3128 7.91138 13.243 8.05028 13.1036 8.14875C12.9662 8.24618 12.7842 8.29485 12.5576 8.29485C12.2767 8.29485 12.0706 8.22563 11.9393 8.08718C11.8511 7.99283 11.8019 7.86413 11.7916 7.70115H12.2192C12.2274 7.77705 12.2469 7.83443 12.2776 7.87343C12.3351 7.94318 12.4299 7.97805 12.5622 7.97805C12.6544 7.97805 12.7278 7.9593 12.7822 7.92188C12.8365 7.88445 12.8637 7.83398 12.8637 7.77038C12.8637 7.71293 12.8404 7.67018 12.7937 7.64198C12.7471 7.61378 12.6484 7.58228 12.4976 7.54741C12.352 7.51358 12.249 7.48718 12.1885 7.4682C12.1279 7.44923 12.0736 7.42643 12.0254 7.39973C11.9629 7.3638 11.9142 7.31363 11.8793 7.24898C11.8444 7.18433 11.827 7.11263 11.827 7.03365C11.827 6.85935 11.8993 6.72653 12.0439 6.63525C12.1618 6.5604 12.3259 6.52298 12.5361 6.52298C12.814 6.52298 13.0134 6.5937 13.1344 6.73523C13.2 6.8121 13.2379 6.92025 13.2481 7.05975Z" fill="white"/></svg>

<svg class="color-immutable" width="30" height="30" viewBox="0 0 30 30" fill="none" xmlns="http://www.w3.org/2000/svg"><g clip-path="url(#a)"><path d="M30 0H0v30h30V0Z" fill="#2D327D"/><path d="M25.5 3c.825 0 1.5.675 1.5 1.5v21c0 .825-.675 1.5-1.5 1.5h-21c-.825 0-1.5-.675-1.5-1.5v-21C3 3.675 3.675 3 4.5 3h21Zm0-.375h-21A1.877 1.877 0 0 0 2.625 4.5v21c0 1.034.841 1.875 1.875 1.875h21a1.877 1.877 0 0 0 1.875-1.875v-21A1.877 1.877 0 0 0 25.5 2.625Z" fill="#fff"/><path d="M6.414 16.32c.025-.924.253-1.698.684-2.323.697-1.005 1.746-1.508 3.145-1.508 1.077 0 1.946.275 2.607.823.713.595 1.07 1.364 1.07 2.307 0 .564-.14 1.05-.42 1.458-.28.407-.657.683-1.134.826.605.139 1.083.446 1.434.923.351.477.527 1.054.527 1.73 0 1.113-.41 2.023-1.23 2.73-.76.657-1.718.985-2.877.985-1.256 0-2.252-.361-2.987-1.084-.736-.723-1.104-1.7-1.104-2.93v-.147H8.29c0 .693.164 1.227.492 1.604.328.377.792.565 1.392.565.6 0 1.062-.177 1.385-.53a1.73 1.73 0 0 0 .446-1.192c0-.554-.19-.993-.57-1.316-.312-.266-.794-.4-1.445-.4-.185 0-.367.01-.546.031V17.22c.133.01.261.015.384.015 1.292 0 1.938-.48 1.938-1.438 0-.42-.14-.76-.423-1.019-.282-.259-.653-.388-1.115-.388-.528 0-.936.164-1.223.492-.287.328-.44.807-.461 1.438h-2.13ZM17.676 17.965c-.523-.18-.925-.474-1.204-.884-.28-.41-.42-.908-.42-1.492 0-.975.4-1.751 1.2-2.33.708-.513 1.549-.77 2.523-.77 1.108 0 2.012.305 2.715.915.666.575 1 1.285 1 2.13 0 .59-.142 1.095-.423 1.516-.283.42-.683.725-1.2.915.405.118.735.269.992.454.712.517 1.069 1.274 1.069 2.268 0 1.144-.439 2.054-1.315 2.73-.738.57-1.687.854-2.846.854-1.256 0-2.255-.313-2.999-.938-.774-.651-1.161-1.505-1.161-2.561 0-.99.343-1.756 1.03-2.3.313-.24.66-.41 1.039-.507Zm2.053.846c-.554 0-1.006.17-1.357.511-.352.341-.527.778-.527 1.311 0 .549.178.995.534 1.339.356.343.82.515 1.388.515.646 0 1.13-.19 1.454-.57.313-.363.469-.784.469-1.26 0-.544-.18-.99-.538-1.339-.344-.338-.818-.507-1.423-.507Zm.015-4.576c-.492 0-.89.137-1.192.412-.302.274-.453.634-.453 1.08 0 .467.152.84.457 1.119.305.28.714.42 1.227.42.512 0 .917-.14 1.215-.416.297-.277.446-.654.446-1.13 0-.467-.15-.831-.45-1.093-.3-.261-.717-.392-1.25-.392ZM8.095 7.037v1.212h-.313l-.05-.257a.816.816 0 0 1-.672.31c-.343 0-.614-.127-.813-.38-.165-.213-.248-.475-.248-.787 0-.354.108-.643.323-.869a1.03 1.03 0 0 1 .783-.32c.295 0 .536.095.721.286a.84.84 0 0 1 .239.508h-.476a.464.464 0 0 0-.165-.283.509.509 0 0 0-.325-.102.532.532 0 0 0-.462.231c-.095.134-.143.316-.143.544 0 .224.045.401.134.533a.55.55 0 0 0 .486.241.533.533 0 0 0 .38-.14.507.507 0 0 0 .157-.367h-.5v-.36h.944ZM8.903 6v2.249h-.446V6h.446ZM10.775 7.726a.751.751 0 0 1-.128.266c-.148.202-.36.303-.636.303-.25 0-.451-.08-.602-.237a.773.773 0 0 1-.17-.278 1.055 1.055 0 0 1-.062-.363c0-.244.07-.45.21-.616a.76.76 0 0 1 .61-.278c.2 0 .372.062.513.186.102.09.176.2.222.33.046.13.069.295.069.493h-1.17a.65.65 0 0 0 .038.205c.06.146.175.22.345.22.083 0 .15-.019.203-.055a.39.39 0 0 0 .129-.176h.429Zm-.43-.494a.54.54 0 0 0-.055-.202.338.338 0 0 0-.295-.17c-.1 0-.181.033-.246.1a.446.446 0 0 0-.115.272h.712ZM11.524 6v.401h-.446V6h.446Zm0 .572V8.25h-.446V6.572h.446ZM13.248 7.06h-.418a.27.27 0 0 0-.048-.131c-.046-.06-.132-.09-.257-.09a.328.328 0 0 0-.183.044.138.138 0 0 0-.064.121c0 .056.024.096.071.122.048.026.157.056.327.09.216.045.372.1.468.165.112.077.169.194.169.35a.48.48 0 0 1-.21.418c-.137.097-.319.146-.545.146-.281 0-.487-.07-.619-.208a.601.601 0 0 1-.147-.386h.427a.335.335 0 0 0 .059.172c.057.07.152.105.284.105a.382.382 0 0 0 .22-.056.175.175 0 0 0 .082-.152.14.14 0 0 0-.07-.128 1.2 1.2 0 0 0-.296-.095 4.83 4.83 0 0 1-.31-.079.876.876 0 0 1-.163-.068.376.376 0 0 1-.146-.151.446.446 0 0 1-.052-.215c0-.175.072-.307.217-.399.118-.075.282-.112.492-.112.278 0 .477.07.598.212a.55.55 0 0 1 .114.325Z" fill="#fff"/></g><defs><clipPath id="a"><path fill="#fff" d="M0 0h30v30H0z"/></clipPath></defs></svg>
